public/art/walls/brick-lrb.svg

<svg xmlns="http://www.w3.org/2000/svg" width="32" height="32" shape-rendering="crispEdges" viewBox="0 -0.5 16 16"><path stroke="#99a1a8" d="M0 0h3m1 0h3m4 0h2m1 0h2M0 1h1m14 0h1M0 2h1m14 0h1M0 3h1m14 9h1M0 13h1m-1 1h1m-1 1h3m10 0h1"/><path stroke="#52636d" d="M3 0h1m5 2h1M3 3h2m3 0h1m1 0h2m1 0h1M3 13h1m8 0h1m-1 2h1"/><path stroke="#8ea5b2" d="M7 0h2m1 0h1M1 1h2m1 0h5m1 0h2m1 0h2M1 2h2m1 0h5m1 0h5M1 3h2m-2 9h2m10 0h2M1 13h2m10 0h3M1 14h2m10 0h2m0 1h1"/><path stroke="#697f88" d="M9 0h1m3 0h1M3 1h1m5 0h1m2 0h1M3 2h1m1 1h3m6 0h2M0 12h1m2 2h1m8 0h1m2 0h1M3 15h1m10 0h1"/><path stroke="#394451" d="M9 3h1m2 0h1M3 12h1m8 0h1"/><path stroke="#000" d="M0 4h16M0 5h16M0 6h16M0 7h16M0 8h16M0 9h16M0 10h16M0 11h16M4 12h8m-8 1h8m-8 1h8m-8 1h8"/></svg>

<svg xmlns="http://www.w3.org/2000/svg" width="32" height="32" viewBox="0 -0.5 16 16" shape-rendering="crispEdges">
<path stroke="#99a1a8" d="M0 0h3M4 0h3M11 0h2M14 0h2M0 1h1M15 1h1M0 2h1M15 2h1M0 3h1M15 12h1M0 13h1M0 14h1M0 15h3M13 15h1" />
<path stroke="#52636d" d="M3 0h1M9 2h1M3 3h2M8 3h1M10 3h2M13 3h1M3 13h1M12 13h1M12 15h1" />
<path stroke="#8ea5b2" d="M7 0h2M10 0h1M1 1h2M4 1h5M10 1h2M13 1h2M1 2h2M4 2h5M10 2h5M1 3h2M1 12h2M13 12h2M1 13h2M13 13h3M1 14h2M13 14h2M15 15h1" />
<path stroke="#697f88" d="M9 0h1M13 0h1M3 1h1M9 1h1M12 1h1M3 2h1M5 3h3M14 3h2M0 12h1M3 14h1M12 14h1M15 14h1M3 15h1M14 15h1" />
<path stroke="#394451" d="M9 3h1M12 3h1M3 12h1M12 12h1" />
<path stroke="#000000" d="M0 4h16M0 5h16M0 6h16M0 7h16M0 8h16M0 9h16M0 10h16M0 11h16M4 12h8M4 13h8M4 14h8M4 15h8" />
</svg>
